X:1
T:Title
%%score ( 1 2 ) { 3 | 4 }
L:1/8
Q:1/4=100
M:3/4
K:G
V:1 treble nm="Grand Piano, Staff"
V:2 treble 
V:3 bass nm="Choir Pad, Woodstock (Dutton), CM"
V:4 bass 
V:1
 [DG]2 [DB]>[DB] [DB]2 | [Dd]2 [DA]>[DA] [DA]2 | [DB]2 [Gc][Gd] ed | cB B2 A2 | %4
w: By~Deodatus~Dutton,~Jr.~(1808\-1832) * * *||||
 [FA]2 [GB]>[GB] [GB]2 | [Gd]2 [FA]>[FA] [FA]2 | [Ge]2 d/c/B/A/ [DG]2 | [DF]2 [DG]4- | %8
w: ||||
 [DG]2 z2 z2 |] %9
w: |
V:2
 x6 | x6 | z2 z2 G2 | D2 D4 | x6 | x6 | z2 GE z2 | x6 | x6 |] %9
V:3
 B,2 G,>G, G,2 | G,2 F,>F, F,2 | G,2 G,B, CG, | F,G, G,2 F,2 | D2 D>D D2 | D2 D>D D2 | %6
 G,2 G,C B,2 | A,2 B,4- | B,2 z2 z2 |] %9
V:4
 G,2 z2 z2 | B,,2 D,>D, D,2 | z2 E,D, C,B,, | A,,G,, D,4 | D,2 G,>G, G,2 | B,,2 D,>D, D,2 | %6
 C,2 B,,C, D,2 | D,2 G,,4- | G,,2 z2 z2 |] %9

